X: 30199
T: Old Grey Cat
R: reel
M: 4/4
K: Edorian
^d2|:e2e2 E3F|GFGA BABc|d2d2 D3E|FAdB AFED|
e2e2 E3F|GFGA BABc|dBcA BGAF|1 G2 E2 E2^d2:|2 G2 E2 E2A2||
|:B2e2 e3d|Bdef gfed|A2d2 d3B|ABde fedB|
e2B2 g2B2|a2B2 b3a|gfed BABd|1 e4 e2d2:|2 e4 e2^d2||

